icon-themes/sifr_svg/cmd/sc_editannotation.svg

<svg viewBox="0 0 16 16" xmlns="http://www.w3.org/2000/svg"><path d="m2 2c-.554 0-1 .446-1 1v8 4l3-3v-1.414062l.5859375-.585938h-1.5859375v-6h7.585938l2-2zm12 0-1 1 2 2 1-1c-.129005-1.3579461-.925643-1.8575071-2-2zm-2 2-7 7v2h2l7-7zm3 2.4160156c-.666841.6664927-1.333304 1.3333625-2 2v1.5839844h-1.585938c-.666634.666698-1.333372 1.333295-1.9999995 2h4.5859375c.554 0 1-.446 1-1z" fill="#555753"/></svg>

<svg xmlns="http://www.w3.org/2000/svg" viewBox="0 0 16 16">
  <path
     style="fill:#555753"
     d="M 2,2 C 1.446,2 1,2.446 1,3 v 8 4 L 4,12 V 10.585938 L 4.5859375,10 H 3 V 4 h 7.585938 l 2,-2 z m 12,0 -1,1 2,2 1,-1 C 15.870995,2.6420539 15.074357,2.1424929 14,2 Z m -2,2 -7,7 v 2 h 2 l 7,-7 z m 3,2.4160156 c -0.666841,0.6664927 -1.333304,1.3333625 -2,2 V 10 h -1.585938 c -0.666634,0.666698 -1.333372,1.333295 -1.9999995,2 H 14 c 0.554,0 1,-0.446 1,-1 z"
     />
</svg>
